app/assets/images/heroicons/solid/arrow-turn-up-left.svg

<svg width="24" height="24" viewBox="0 0 24 24" fill="none" xmlns="http://www.w3.org/2000/svg">
<path fill-rule="evenodd" clip-rule="evenodd" d="M20.2388 20.25C19.8245 20.25 19.4887 19.9142 19.4887 19.5L19.4887 8.99902L5.54982 8.99902L8.0195 11.469C8.31238 11.7619 8.31236 12.2368 8.01944 12.5297C7.72653 12.8226 7.25165 12.8226 6.95877 12.5297L3.20889 8.77932C2.91603 8.48642 2.91603 8.01156 3.20889 7.71866L6.95877 3.9683C7.25165 3.67538 7.72653 3.67535 8.01944 3.96825C8.31236 4.26114 8.31238 4.73603 8.0195 5.02896L5.54982 7.49895L20.2388 7.49895C20.653 7.49895 20.9888 7.83476 20.9888 8.24899L20.9888 19.5C20.9888 19.9142 20.653 20.25 20.2388 20.25Z" fill="black"/>
</svg>

<svg xmlns="http://www.w3.org/2000/svg" viewBox="0 0 24 24" fill="currentColor" aria-hidden="true" data-slot="icon">
  <path fill-rule="evenodd" d="M20.239 20.25a.75.75 0 0 1-.75-.75V8.999H5.549l2.47 2.47a.75.75 0 0 1-1.06 1.06l-3.75-3.75a.75.75 0 0 1 0-1.06l3.75-3.75a.75.75 0 1 1 1.06 1.06l-2.47 2.47h14.69a.75.75 0 0 1 .75.75V19.5a.75.75 0 0 1-.75.75Z" clip-rule="evenodd"/>
</svg>
